!!!COM: Haydn, Franz Joseph
!!!OPR: London Symphonies
!!!OTL: Symphonie Nr. 100
!!!XEN: Symphony No. 100 in G major
!!!OTP: "Military"
!!!OMV: Movement 3.
!!!YEC: Copyright 1996, Center for Computer Assisted Research in the Humanities
!!!YEM: Rights to all derivative electronic formats reserved.
!!!YEM: Refer to licensing agreement for further details.
!!
!! Menuet and Trio
!! Menuet
!! Moderato
**kern	**kern	**kern	**kern	**kern	**kern	**kern	**kern	**kern	**kern	**kern	**kern	**kern	**kern	**kern	**kern
!Contrabasso	!Violoncello	!Viola	!Violino II	!Violino I	!Timpani in G, D	!Tromba 2 in C	!Tromba 1 in C	!Corno 2 in C	!Corno 1 in C	!Fagotto 2	!Fagotto 1	!Oboe 2	!Oboe 1	!Flauto 2	!Flauto 1
*Icbass	*Icello	*Iviola	*Ivioln	*Ivioln	*Itimpa	*Itromp	*Itromp	*Icor	*Icor	*Ifagot	*Ifagot	*Ioboe	*Ioboe	*Iflt	*Iflt
*ICstr	*ICstr	*ICstr	*ICstr	*ICstr	*ICidio	*ICbras	*ICbras	*ICbras	*ICbras	*ICww	*ICww	*ICww	*ICww	*ICww	*ICww
*clefF4	*clefF4	*clefC3	*clefG2	*clefG2	*clefF4	*clefG2	*clefG2	*clefG2	*clefG2	*clefF4	*clefF4	*clefG2	*clefG2	*clefG2	*clefG2
*k[f#]	*k[f#]	*k[f#]	*k[f#]	*k[f#]	*k[f#]	*k[f#]	*k[f#]	*k[f#]	*k[f#]	*k[f#]	*k[f#]	*k[f#]	*k[f#]	*k[f#]	*k[f#]
*M3/4	*M3/4	*M3/4	*M3/4	*M3/4	*M3/4	*M3/4	*M3/4	*M3/4	*M3/4	*M3/4	*M3/4	*M3/4	*M3/4	*M3/4	*M3/4
*>[A,B,C,B,D,E,E,F,G,F,H,A,B,D]	*>[A,B,C,B,D,E,E,F,G,F,H,A,B,D]	*>[A,B,C,B,D,E,E,F,G,F,H,A,B,D]	*>[A,B,C,B,D,E,E,F,G,F,H,A,B,D]	*>[A,B,C,B,D,E,E,F,G,F,H,A,B,D]	*>[A,B,C,B,D,E,E,F,G,F,H,A,B,D]	*>[A,B,C,B,D,E,E,F,G,F,H,A,B,D]	*>[A,B,C,B,D,E,E,F,G,F,H,A,B,D]	*>[A,B,C,B,D,E,E,F,G,F,H,A,B,D]	*>[A,B,C,B,D,E,E,F,G,F,H,A,B,D]	*>[A,B,C,B,D,E,E,F,G,F,H,A,B,D]	*>[A,B,C,B,D,E,E,F,G,F,H,A,B,D]	*>[A,B,C,B,D,E,E,F,G,F,H,A,B,D]	*>[A,B,C,B,D,E,E,F,G,F,H,A,B,D]	*>[A,B,C,B,D,E,E,F,G,F,H,A,B,D]	*>[A,B,C,B,D,E,E,F,G,F,H,A,B,D]
*>A	*>A	*>A	*>A	*>A	*>A	*>A	*>A	*>A	*>A	*>A	*>A	*>A	*>A	*>A	*>A
4r	4r	4r	4r	(8gg\L)	4r	4r	4r	4r	4r	4r	4r	4r	(8gg\L)	(8gg\L)	(8gg\L)
.	.	.	.	16ff#\L	.	.	.	.	.	.	.	.	16ff#\L	16ff#\L	16ff#\L
.	.	.	.	16gg\JJ)	.	.	.	.	.	.	.	.	16gg\JJ)	16gg\JJ)	16gg\JJ)
=1	=1	=1	=1	=1	=1	=1	=1	=1	=1	=1	=1	=1	=1	=1	=1
4GG'\	4G'\	4G'/	4b/ 4d'/	4dd'\	4GG/	4g'/	4dd'\	4B'/	4g'\	4G'\	4B'\	4b'\	4dd'\	4dd'\	4dd'\
4GG'\	4G'\	4G'/	4b/ 4d'/	4dd'\	4GG/	4g'/	4dd'\	4B'/	4g'\	4G'\	4B'\	4b'\	4dd'\	4dd'\	4dd'\
4r	4r	4r	4r	(8dd\L)	4r	4r	4r	4r	4r	4r	4r	4r	(8dd\L)	(8dd\L)	(8dd\L)
.	.	.	.	16cc#\L	.	.	.	.	.	.	.	.	16cc#\L	16cc#\L	16cc#\L
.	.	.	.	16dd\JJ)	.	.	.	.	.	.	.	.	16dd\JJ)	16dd\JJ)	16dd\JJ)
=2	=2	=2	=2	=2	=2	=2	=2	=2	=2	=2	=2	=2	=2	=2	=2
4GG'\	4G'\	4G'/	4b/ 4d'/	4b'\	4GG/	4g'/	4dd'\	4g'\	4b'\	4B'\	4d'\	4g'/	4b'\	4b'\	4b'\
4GG'\	4G'\	4G'/	4b/ 4d'/	4b'\	4GG/	4g'/	4dd'\	4g'\	4b'\	4B'\	4d'\	4g'/	4b'\	4b'\	4b'\
4r	4r	4r	4r	(8b/L)	4r	4r	4r	4r	4r	4r	4r	4r	(8b/L)	(8b/L)	(8b/L)
.	.	.	.	16a/L	.	.	.	.	.	.	.	.	16a/L	16a/L	16a/L
.	.	.	.	16g/JJ)	.	.	.	.	.	.	.	.	16g/JJ)	16g/JJ)	16g/JJ)
=3	=3	=3	=3	=3	=3	=3	=3	=3	=3	=3	=3	=3	=3	=3	=3
2.DD\	2.D\	(2A/	(2c/	8f#'/L	8D\L	[2.dd\	[2.dd\	2d/	2a\	2A\	2c\	8f#'/L	8f#'/L	8f#'/L	8f#'/L
.	.	.	.	8g'/	8D\	.	.	.	.	.	.	8g'/	8g'/	8g'/	8g'/
.	.	.	.	8g#'/	8D\	.	.	.	.	.	.	8g#'/	8g#'/	8g#'/	8g#'/
.	.	.	.	8a'/	8D\	.	.	.	.	.	.	8a'/	8a'/	8a'/	8a'/
.	.	4G/)	4B/)	8b-'/	8D\	.	.	4g\	4b\	4G\	4B\	8b-'/	8b-'/	8b-'/	8b-'/
.	.	.	.	8b'/J	8D\J	.	.	.	.	.	.	8b'/J	8b'/J	8b'/J	8b'/J
=4	=4	=4	=4	=4	=4	=4	=4	=4	=4	=4	=4	=4	=4	=4	=4
4DDD/	4DD/	4F#/	4A/	4cc\	4D\	4dd\]	4dd\]	4a\	4cc\	4F#\	4A\	4cc\	4cc\	4cc\	4cc\
4r	4r	4r	4r	4r	4r	4r	4r	4r	4r	4r	4r	4r	4r	4r	4r
4r	4r	4r	4r	(8cc\L)	4r	4r	4r	4r	4r	4r	4r	4r	(8cc\L)	(8cc\L)	(8cc\L)
.	.	.	.	16b\L	.	.	.	.	.	.	.	.	16b\L	16b\L	16b\L
.	.	.	.	16cc\JJ)	.	.	.	.	.	.	.	.	16cc\JJ)	16cc\JJ)	16cc\JJ)
=5	=5	=5	=5	=5	=5	=5	=5	=5	=5	=5	=5	=5	=5	=5	=5
4DD\	4D\	4f#\ 4A\	4cc/ 4d/	4aa'\	4D\	4dd\	4dd\	4d/	4a\	4F#\	4A\	4cc\	4aa'\	4aa'\	4aa\
4DD\	4D\	4f#\ 4A\	4cc/ 4d/	4aa'\	4r	4dd\	4dd\	4d/	4a\	4F#\	4A\	4cc\	4aa'\	4aa'\	4aa\
4r	4r	4r	4r	(8ff#\L)	4r	4r	4r	4r	4r	4r	4r	4r	(8ff#\L)	(8ff#\L)	(8ff#\L)
.	.	.	.	16ee\L	.	.	.	.	.	.	.	.	16ee\L	16ee\L	16ee\L
.	.	.	.	16dd\JJ)	.	.	.	.	.	.	.	.	16dd\JJ)	16dd\JJ)	16dd\JJ)
=6	=6	=6	=6	=6	=6	=6	=6	=6	=6	=6	=6	=6	=6	=6	=6
4DD#\	4D#\	4f#\	4a/ 4f#/	4cc'\	2.r	4cc\	4cc\	4a\	4cc\	4D#\	4D#\	4a/	4cc'\	4cc'\	4cc'\
4DD#\	4D#\	4f#\	4a/ 4f#/	4cc'\	.	4cc\	4cc\	4a\	4cc\	4D#\	4D#\	4a/	4cc'\	4cc'\	4cc'\
4EE\	4E\	4g\	4g/	(8b/L)	.	4g/	4g/	4g\	4b\	4E\	4E\	4g/	(8b/L)	(8b/L)	(8b/L)
.	.	.	.	16a/L	.	.	.	.	.	.	.	.	16a/L	16a/L	16a/L
.	.	.	.	16g/JJ)	.	.	.	.	.	.	.	.	16g/JJ)	16g/JJ)	16g/JJ)
=7	=7	=7	=7	=7	=7	=7	=7	=7	=7	=7	=7	=7	=7	=7	=7
4CC/	4C/	4e\	4e/	8a'\L	4r	4cc\	4ee\	4a\	4a\	4C/	4C/	8a'\L	8a'\L	8a'\L	8a'\L
.	.	.	.	8b'\	.	.	.	.	.	.	.	8b'\	8b'\	8b'\	8b'\
4r	4r	4r	4r	8cc'\	4r	4r	4r	4r	4r	4r	4r	8cc'\	8cc'\	8cc'\	8cc'\
.	.	.	.	8dd'\	.	.	.	.	.	.	.	8dd'\	8dd'\	8dd'\	8dd'\
4DD\	4DD/	4d\	4cc\ 4a\	8ee'\	4D\	4dd\	4dd\	4d/	4a\	4D\	4D\	8ee'\	8ee'\	8ee'\	8ee'\
.	.	.	.	8ff#'\J	.	.	.	.	.	.	.	8ff#'\J	8ff#'\J	8ff#'\J	8ff#'\J
=8	=8	=8	=8	=8	=8	=8	=8	=8	=8	=8	=8	=8	=8	=8	=8
4GGG/	4GG/	4G/	4b/ 4g/	4gg\	4GG/	4g/	4dd\	4g\	4b\	4GG/	4GG/	4gg\	4gg\	4gg\	4gg\
4r	4r	4r	4r	4r	4r	4r	4r	4r	4r	4r	4r	4r	4r	4r	4r
4r	4r	4r	4r	(8gg\L)	4r	4r	4r	4r	4r	4r	4g\	4r	4r	4r	(8gg\L)
.	.	.	.	16ff#\L	.	.	.	.	.	.	.	.	.	.	16ff#\L
.	.	.	.	16gg\JJ)	.	.	.	.	.	.	.	.	.	.	16gg\JJ)
=9	=9	=9	=9	=9	=9	=9	=9	=9	=9	=9	=9	=9	=9	=9	=9
4GG"\	8G'\L	4b"\ 4d"\ 4G"\	8B'/L	4dd'\	2.r	2.r	2.r	2.r	2.r	2.r	4d'\	2.r	2.r	2.r	4dd'\
.	8B'\	.	8d'/	.	.	.	.	.	.	.	.	.	.	.	.
4r	8G'\	4r	8B'/	4dd'\	.	.	.	.	.	.	4d'\	.	.	.	4dd'\
.	8B'\	.	8d'/	.	.	.	.	.	.	.	.	.	.	.	.
4r	8G'\	4r	8B'/	(8dd\L)	.	.	.	.	.	.	(8d\L)	.	.	.	(8ddd\L)
.	8B'\J	.	8d'/J	16cc#\L	.	.	.	.	.	.	16c#\L	.	.	.	16ccc#\L
.	.	.	.	16dd\JJ)	.	.	.	.	.	.	16d\JJ)	.	.	.	16ddd\JJ)
=10	=10	=10	=10	=10	=10	=10	=10	=10	=10	=10	=10	=10	=10	=10	=10
4GG"\	8G\L	4b"\ 4d"\ 4G"\	8g/L	4b'\	2.r	2.r	2.r	2.r	2.r	2.r	4B'\	2.r	2.r	2.r	4bb'\
.	8B\	.	8d/	.	.	.	.	.	.	.	.	.	.	.	.
4r	8G\	4r	8B/	4b'\	.	.	.	.	.	.	4B'\	.	.	.	4bb'\
.	8B\	.	8d/	.	.	.	.	.	.	.	.	.	.	.	.
4r	8G\	4r	8B/	(8b/L)	.	.	.	.	.	.	(8B\L)	.	.	.	(8bb\L)
.	8B\J	.	8d/J	16a/L	.	.	.	.	.	.	16A\L	.	.	.	16aa\L
.	.	.	.	16g/JJ)	.	.	.	.	.	.	16G\JJ)	.	.	.	16gg\JJ)
=11	=11	=11	=11	=11	=11	=11	=11	=11	=11	=11	=11	=11	=11	=11	=11
4DD"\	(2A\	4d"\	(2c/	(8f#/L	2.r	2.r	2.r	2.r	2.r	2.r	(8F#\L	2.r	2.r	2.r	(8ff#\L
.	.	.	.	8g/	.	.	.	.	.	.	8G\	.	.	.	8gg\
4r	.	4r	.	8g#/	.	.	.	.	.	.	8G#\	.	.	.	8gg#\
.	.	.	.	8a/	.	.	.	.	.	.	8A\	.	.	.	8aa\
4r	4G\)	4r	4B/)	8b-/	.	.	.	.	.	.	8B-\	.	.	.	8bb-\
.	.	.	.	8b/J)	.	.	.	.	.	.	8B\J)	.	.	.	8bb\J)
=12	=12	=12	=12	=12	=12	=12	=12	=12	=12	=12	=12	=12	=12	=12	=12
4DD"\	4F#\	4d"\	4A/	4cc\	2.r	2.r	2.r	2.r	2.r	2.r	4c\	(8dd\L	(8ff#\L	2.r	4ccc\
.	.	.	.	.	.	.	.	.	.	.	.	8ee\	8gg\	.	.
4r	4r	4r	4r	4r	.	.	.	.	.	.	4r	8ff#\	8aa\	.	4r
.	.	.	.	.	.	.	.	.	.	.	.	8gg\	8bb\	.	.
4r	4r	4r	4r	(8cc\L)	.	.	.	.	.	.	(8c\L)	8aa\	8ccc\	.	4r
.	.	.	.	16b\L	.	.	.	.	.	.	16B\L	8gg\J)	8bb\J)	.	.
.	.	.	.	16cc\JJ)	.	.	.	.	.	.	16c\JJ)	.	.	.	.
=13	=13	=13	=13	=13	=13	=13	=13	=13	=13	=13	=13	=13	=13	=13	=13
4DD"\	8F#\L	4d"\	8a/L	4aa'\	2.r	2.r	2.r	2.r	2.r	2.r	4a'\	4ff#\	4aa\	2.r	4aa'\
.	8A\	.	8cc/	.	.	.	.	.	.	.	.	.	.	.	.
4r	8F#\	4r	8a/	4aa'\	.	.	.	.	.	.	4a'\	4r	4r	.	4aa'\
.	8A\	.	8cc/	.	.	.	.	.	.	.	.	.	.	.	.
4r	8F#\	4r	8a/	(8ff#\L)	.	.	.	.	.	.	(8f#\L)	4r	4r	.	(8ff#\L)
.	8A\J	.	8cc/J	16ee\L	.	.	.	.	.	.	16e\L	.	.	.	16ee\L
.	.	.	.	16dd\JJ)	.	.	.	.	.	.	16d\JJ)	.	.	.	16dd\JJ)
=14	=14	=14	=14	=14	=14	=14	=14	=14	=14	=14	=14	=14	=14	=14	=14
4DD#"\	8D#\L	4a"\	8f#/L	4cc\	2.r	2.r	2.r	2.r	2.r	2.r	4c'\	2.r	2.r	2.r	4ccc'\
.	8F#\	.	8a/	.	.	.	.	.	.	.	.	.	.	.	.
4r	8D#\	4r	8f#/	4cc\	.	.	.	.	.	.	4c'\	.	.	.	4ccc'\
.	8F#\	.	8a/	.	.	.	.	.	.	.	.	.	.	.	.
4EE"\	8E\	4g"\	8g/	(8b/L)	.	.	.	.	.	.	(8B\L)	.	.	.	(8bb\L)
.	8G\J	.	8b/J	16a/L	.	.	.	.	.	.	16A\L	.	.	.	16aa\L
.	.	.	.	16g/JJ)	.	.	.	.	.	.	16G\JJ)	.	.	.	16gg\JJ)
=15	=15	=15	=15	=15	=15	=15	=15	=15	=15	=15	=15	=15	=15	=15	=15
4CC"/	4C/	4c"\	4e/	8a'\L	2.r	2.r	2.r	2.r	2.r	2.r	8A'\L	2.r	2.r	2.r	8aa'\L
.	.	.	.	8b'\	.	.	.	.	.	.	8B'\	.	.	.	8bb'\
4r	4r	4r	4r	8cc'\	.	.	.	.	.	.	8c'\	.	.	.	8ccc'\
.	.	.	.	8dd'\	.	.	.	.	.	.	8d'\	.	.	.	8ddd'\
4DD"\	4D\	4d"\	4c/	8ee'\	.	.	.	.	.	.	8e'\	.	.	.	8eee'\
.	.	.	.	8ff#'\J	.	.	.	.	.	.	8f#'\J	.	.	.	8fff#'\J
=16	=16	=16	=16	=16	=16	=16	=16	=16	=16	=16	=16	=16	=16	=16	=16
4GGG"/	4GG/	4G"/	4B/	4gg\	4r	4r	4r	4r	4r	4r	4g\	4r	4r	4r	4ggg\
4GG"\	4G\	4r	4r	4r	4r	4r	4r	4r	4r	4r	4r	4r	4r	4r	4r
=||@	=||@	=||@	=||@	=||@	=||@	=||@	=||@	=||@	=||@	=||@	=||@	=||@	=||@	=||@	=||@
*>B	*>B	*>B	*>B	*>B	*>B	*>B	*>B	*>B	*>B	*>B	*>B	*>B	*>B	*>B	*>B
4r	(8B\L)	(8B/L)	(8dd\L)	4gg'\	4r	4r	4r	4g\	4b\	4r	4r	4r	4gg\	4r	4r
.	16A\L	16A/L	16cc\L	.	.	.	.	.	.	.	.	.	.	.	.
.	16G\JJ)	16G/JJ)	16b\JJ)	.	.	.	.	.	.	.	.	.	.	.	.
=17	=17	=17	=17	=17	=17	=17	=17	=17	=17	=17	=17	=17	=17	=17	=17
2.r	8A'\L	8A'\L	4ccz'\	(4ggz\	2.r	2.r	2.r	4a\	4cc\	4r	4r	2.r	(4gg\	2.r	2.r
.	8B'\	8B'\	.	.	.	.	.	.	.	.	.	.	.	.	.
.	8c'\	8c'\	4cc'\	4ff#\)	.	.	.	4r	4r	4A\	4A\	.	4ff#\)	.	.
.	8d'\	8d'\	.	.	.	.	.	.	.	.	.	.	.	.	.
.	8e'\	8e'\	(8cc\L)	4ff#'\	.	.	.	4a\	4cc\	4A\	4A\	.	4ff#'\	.	.
.	8f#'\J	8f#'\J	16b\L	.	.	.	.	.	.	.	.	.	.	.	.
.	.	.	16a\JJ)	.	.	.	.	.	.	.	.	.	.	.	.
=18	=18	=18	=18	=18	=18	=18	=18	=18	=18	=18	=18	=18	=18	=18	=18
2r	2g\	2g\	2bz\	(4ff#z\	2.r	2.r	2.r	4g\	4b\	(4G\	(4G\	(4dd\	(4bbz\	2r	4r
.	.	.	.	4ee\)	.	.	.	4r	4r	4g\)	4g\)	4ee\)	4ee\)	.	4r
(8GG\L)	(8G\L)	4r	(8b/L)	4ee'\	.	.	.	4g\	4b\	4r	4r	4ee'\	4ee'\	4ee\	4ee\
16FF#\L	16F#\L	.	16a/L	.	.	.	.	.	.	.	.	.	.	.	.
16EE\JJ)	16E\JJ)	.	16g/JJ)	.	.	.	.	.	.	.	.	.	.	.	.
=19	=19	=19	=19	=19	=19	=19	=19	=19	=19	=19	=19	=19	=19	=19	=19
8FF#'\L	8F#'\L	2.r	4az'/	(4eez\	2.r	2.r	2.r	4a\	4a\	4r	4r	4a/	(4eez\	(8aa\L	(8aa\L
8GG'\	8G'\	.	.	.	.	.	.	.	.	.	.	.	.	8ff#\J)	8ff#\J)
8AA'\	8A'\	.	4a'/	4dd\)	.	.	.	4r	4r	4F#'\	4F#'\	4r	4dd\)	4dd'\	4dd'\
8BB'\	8B'\	.	.	.	.	.	.	.	.	.	.	.	.	.	.
8C#'\	8c#'\	.	(8a/L)	4dd'\	.	.	.	4a\	4a\	4F#'\	4F#'\	4r	4dd'\	4dd'\	4dd'\
8D'\J	8d'\J	.	16g/L	.	.	.	.	.	.	.	.	.	.	.	.
.	.	.	16f#/JJ)	.	.	.	.	.	.	.	.	.	.	.	.
=20	=20	=20	=20	=20	=20	=20	=20	=20	=20	=20	=20	=20	=20	=20	=20
2Ez\	2ez\	4r	2gz/	(4ddz\	2.r	2.r	2.r	[2.a\	[2.a\	(4Ez\	(4Ez\	(4az/	(4ggz\	(4ddz\	(4ddz\
.	.	4r	.	4cc#\)	.	.	.	.	.	4e\)	4e\)	4cc#\)	4cc#\)	4cc#\)	4cc#\)
4D\	4d\	4f#\	4f#/	(8dd\L)	.	.	.	.	.	4f#'\	4f#'\	4dd'\	(8dd\L)	4dd'\	4dd'\
.	.	.	.	16cc#\L	.	.	.	.	.	.	.	.	16cc#\L	.	.
.	.	.	.	16dd\JJ)	.	.	.	.	.	.	.	.	16dd\JJ)	.	.
=21	=21	=21	=21	=21	=21	=21	=21	=21	=21	=21	=21	=21	=21	=21	=21
2C#\	2c#\	2g\	2e/	4ee'\	2.r	2.r	2.r	2.a_\	2.a_\	2g\	2g\	[2.a/	4ee'\	[2.a/	[2.a/
.	.	.	.	4ee'\	.	.	.	.	.	.	.	.	4ee'\	.	.
4D\	4d\	(8f#\L)	(8f#/L)	(8dd\L)	.	.	.	.	.	(8f#\L)	(8f#\L)	.	(8dd\L)	.	.
.	.	16e\L	16e/L	16cc#\L	.	.	.	.	.	16e\L	16e\L	.	16cc#\L	.	.
.	.	16f#\JJ)	16f#/JJ)	16dd\JJ)	.	.	.	.	.	16f#\JJ)	16f#\JJ)	.	16dd\JJ)	.	.
=22	=22	=22	=22	=22	=22	=22	=22	=22	=22	=22	=22	=22	=22	=22	=22
2E\	2e\	2e\	2g/	4cc#'\	2.r	2.r	2.r	4a\]	4a\]	2e\	2e\	4a/]	4cc#\	2.a/]	2.a/]
.	.	.	.	4cc#'\	.	.	.	4r	4r	.	.	4r	4r	.	.
4D\	4d\	4f#\	4f#/	(8dd\L)	.	.	.	4r	4r	(8f#\L)	(8f#\L)	4r	4r	.	.
.	.	.	.	16cc#\L	.	.	.	.	.	16e\L	16e\L	.	.	.	.
.	.	.	.	16dd\JJ)	.	.	.	.	.	16f#\JJ)	16f#\JJ)	.	.	.	.
=23	=23	=23	=23	=23	=23	=23	=23	=23	=23	=23	=23	=23	=23	=23	=23
2C#\	2c#\	2g\	2e/	4ee'\	2.r	2.r	2.r	2.r	2.r	2g\	2g\	2.r	4aa\)	[2.a/	[2.a/
.	.	.	.	4ee'\	.	.	.	.	.	.	.	.	4r	.	.
4D\	4d\	(8f#\L)	(8f#/L)	(8dd\L)	.	.	.	.	.	(8f#\L)	(8f#\L)	.	4r	.	.
.	.	16e\L	16e/L	16cc#\L	.	.	.	.	.	16e\L	16e\L	.	.	.	.
.	.	16f#\JJ)	16f#/JJ)	16dd\JJ)	.	.	.	.	.	16f#\JJ)	16f#\JJ)	.	.	.	.
=24	=24	=24	=24	=24	=24	=24	=24	=24	=24	=24	=24	=24	=24	=24	=24
2E\	2e\	2e\	2g/	4cc#'\	2.r	2.r	2.r	2.r	2.r	2e\	2e\	4r	4aa\)	2a/]	2a/]
.	.	.	.	4cc#'\	.	.	.	.	.	.	.	4r	4r	.	.
4r	4r	8g\L	4r	(8cc#\L)	.	.	.	.	.	4r	4r	(8g/L	4r	(8cc#\L)	(8cc#\L)
.	.	8e\J	.	16b\L	.	.	.	.	.	.	.	8e/J)	.	16b\L	16b\L
.	.	.	.	16a\JJ)	.	.	.	.	.	.	.	.	.	16a\JJ)	16a\JJ)
=25	=25	=25	=25	=25	=25	=25	=25	=25	=25	=25	=25	=25	=25	=25	=25
2.r	2.r	8d'\L	(4ff#z\	(4aaz\	2.r	2.r	2.r	2.d/	2a\	2.r	2.r	8d'/L	(4aaz\	(4aaz\	(4aaz\
.	.	8e'\	.	.	.	.	.	.	.	.	.	8e'/	.	.	.
.	.	8f#'\	4ee\	4gg\	.	.	.	.	.	.	.	8f#'/	4gg\	4gg\	4gg\
.	.	8g'\	.	.	.	.	.	.	.	.	.	8g'/	.	.	.
.	.	8a'\	4dd\)	4ff#\)	.	.	.	.	4dd\	.	.	8a'/	4ff#\)	4ff#\)	4ff#\)
.	.	8b'\J	.	.	.	.	.	.	.	.	.	8b'/J	.	.	.
=26	=26	=26	=26	=26	=26	=26	=26	=26	=26	=26	=26	=26	=26	=26	=26
8EE'\L	8E'\L	8e'\L	(4ggz\	(4bbz\	2.r	2.r	2.r	4g\	4b\	(4gz\	(4gz\	4e/	(4bbz\	(4bbz\	(4bbz\
8FF#'\	8F#'\	8f#'\	.	.	.	.	.	.	.	.	.	.	.	.	.
8GG'\	8G'\	8g'\	4ff#\	4aa\	.	.	.	4r	4r	4f#\	4f#\	4r	4aa\	4aa\	4aa\
8AA'\	8A'\	8a'\	.	.	.	.	.	.	.	.	.	.	.	.	.
8BB'\	8B'\	8b'\	4ee\)	4gg\)	.	.	.	4r	4r	4e\)	4e\)	4ee\	4gg\)	4gg\)	4gg\)
8C#'\J	8c#'\J	8cc#'\J	.	.	.	.	.	.	.	.	.	.	.	.	.
=27	=27	=27	=27	=27	=27	=27	=27	=27	=27	=27	=27	=27	=27	=27	=27
4D\	4d\	4dd\	(8dd\L)	(8ff#\L)	2.r	2.r	2.r	4d/	4a\	4d\	4d\	(8dd\L)	(8ff#\L)	(8ff#\L)	(8ff#\L)
.	.	.	16cc#\L	16ee\L	.	.	.	.	.	.	.	16cc#\L	16ee\L	16ee\L	16ee\L
.	.	.	16dd\JJ)	16ff#\JJ)	.	.	.	.	.	.	.	16dd\JJ)	16ff#\JJ)	16ff#\JJ)	16ff#\JJ)
4GG\	4G\	4G/	4b'\	4gg'\	.	.	.	4g\	4b\	4G\	4G\	4ee'\	4gg'\	4gg'\	4gg'\
4AA\	4A\	4A/	4cc#'\	4ee'\	.	.	.	4a\	4a\	4A\	4A\	4cc#'\	4ee'\	4ee'\	4ee'\
=28	=28	=28	=28	=28	=28	=28	=28	=28	=28	=28	=28	=28	=28	=28	=28
(8D\L)	(8d\L)	4d\	2dd/ 2d/	2dd/ 2d/	4D\	2dd\	2dd\	2d/	2a\	(8d\L)	(8d\L)	2dd\	2dd\	2dd\	2dd\
16C#\L	16c#\L	.	.	.	.	.	.	.	.	16c#\L	16c#\L	.	.	.	.
16D\JJ)	16d\JJ)	.	.	.	.	.	.	.	.	16d\JJ)	16d\JJ)	.	.	.	.
4DD\	4D\	4r	.	.	4r	.	.	.	.	4D\	4D\	.	.	.	.
4DD\	4D\	(8f#\L)	(8dd\L)	(8dd\L)	4r	4r	4r	4r	4r	4D\	4D\	4f#/	(8dd\L)	4ddd\	4ddd\
.	.	16e\L	16cc#\L	16cc#\L	.	.	.	.	.	.	.	.	16cc#\L	.	.
.	.	16f#\JJ)	16dd\JJ)	16dd\JJ)	.	.	.	.	.	.	.	.	16dd\JJ)	.	.
=29	=29	=29	=29	=29	=29	=29	=29	=29	=29	=29	=29	=29	=29	=29	=29
(8D\L)	(8d\L)	2g\	2cc#\	4ee'\	4D\	2dd\	2dd\	2D/	2d/	(8d\L)	(8d\L)	2g/	4ee'\	2ccc#\	2ccc#\
16C#\L	16c#\L	.	.	.	.	.	.	.	.	16c#\L	16c#\L	.	.	.	.
16D\JJ)	16d\JJ)	.	.	.	.	.	.	.	.	16d\JJ)	16d\JJ)	.	.	.	.
4DD\	4D\	.	.	4ee'\	4r	.	.	.	.	4D\	4D\	.	4ee'\	.	.
4DD\	4D\	4a\	4cc\	(8ff#\L)	4r	4r	4r	4r	4r	4D\	4D\	4a/	(8ff#\L)	4ccc\	4ccc\
.	.	.	.	16ee\L	.	.	.	.	.	.	.	.	16ee\L	.	.
.	.	.	.	16ff#\JJ)	.	.	.	.	.	.	.	.	16ff#\JJ)	.	.
=30	=30	=30	=30	=30	=30	=30	=30	=30	=30	=30	=30	=30	=30	=30	=30
(8D\L)	(8d\L)	4b\	2b\	4gg'\	4D\	2dd\	2dd\	2D/	2d/	(8d\L)	(8d\L)	2b\	4gg'\	2bb\	2bb\
16C#\L	16c#\L	.	.	.	.	.	.	.	.	16c#\L	16c#\L	.	.	.	.
16D\JJ)	16d\JJ)	.	.	.	.	.	.	.	.	16d\JJ)	16d\JJ)	.	.	.	.
4DD\	4D\	4r	.	4gg'\	4r	.	.	.	.	4D\	4D\	.	4gg'\	.	.
4DD\	4D\	4r	(8b/L)	(8gg#\L)	4r	4r	4r	4r	4r	4r	4r	(8b\L)	(8gg#\L)	(8bb\L)	(8bb\L)
.	.	.	16a/L	16ff#\L	.	.	.	.	.	.	.	16a\L	16ff#\L	16aa\L	16aa\L
.	.	.	16b/JJ)	16gg#\JJ)	.	.	.	.	.	.	.	16b\JJ)	16gg#\JJ)	16bb\JJ)	16bb\JJ)
=31	=31	=31	=31	=31	=31	=31	=31	=31	=31	=31	=31	=31	=31	=31	=31
(8D\L)	(8d\L)	4r	4cc\	4aa'\	4D\	2dd\	2dd\	2D/	2d/	4r	4r	4cc'\	4aa'\	4ccc'\	4ccc'\
16C#\L	16c#\L	.	.	.	.	.	.	.	.	.	.	.	.	.	.
16D\JJ)	16d\JJ)	.	.	.	.	.	.	.	.	.	.	.	.	.	.
4DD\	4D\	(8c/L)	(8a/L)	(8ff#\L)	4r	.	.	.	.	(8c\L)	(8c\L)	(8a/L)	(8ff#\L)	(8aa\L)	(8aa\L)
.	.	16B/L	16g/L	16ee\L	.	.	.	.	.	16B\L	16B\L	16g/L	16ee\L	16gg\L	16gg\L
.	.	16c/JJ)	16a/JJ)	16ff#\JJ)	.	.	.	.	.	16c\JJ)	16c\JJ)	16a/JJ)	16ff#\JJ)	16aa\JJ)	16aa\JJ)
(8D\L)	(8d\L)	4B'/	4b'/	4gg'\	4r	4r	4r	4r	4r	4B'\	4B'\	4b'\	4gg'\	4bb'\	4bb'\
16C#\L	16c#\L	.	.	.	.	.	.	.	.	.	.	.	.	.	.
16D\JJ)	16d\JJ)	.	.	.	.	.	.	.	.	.	.	.	.	.	.
=32	=32	=32	=32	=32	=32	=32	=32	=32	=32	=32	=32	=32	=32	=32	=32
4DD\	4D\	4g\	2.g/	4ee\	4D\	2dd\	2dd\	2D/	2d/	4g\	4g\	2.g/	4ee\	(4gg\	(4gg\
(8D\L)	(8d\L)	4e\	.	4cc#\	4r	.	.	.	.	4e\	4e\	.	4cc#\	4eee\	4eee\
16C#\L	16c#\L	.	.	.	.	.	.	.	.	.	.	.	.	.	.
16D\JJ)	16d\JJ)	.	.	.	.	.	.	.	.	.	.	.	.	.	.
4DD\	4D\	4c#\	.	4a/	4r	4r	4r	4r	4r	4c#\	4c#\	.	4a/	4ccc#\)	4ccc#\)
=33	=33	=33	=33	=33	=33	=33	=33	=33	=33	=33	=33	=33	=33	=33	=33
8D\L	8d\L	4d\	2f#/	4dd'\	4D\	2dd\	2dd\	[2.D/	[2.d/	2d\	2d\	4f#'/	4dd'\	4ddd'\	4ddd'\
8DD\	8D\	.	.	.	.	.	.	.	.	.	.	.	.	.	.
8D\	8d\	4a\	.	4dd'\	4r	.	.	.	.	.	.	4a'/	4dd'\	4ddd'\	4ddd'\
8DD\	8D\	.	.	.	.	.	.	.	.	.	.	.	.	.	.
8D\	8d\	4e\	4g/	(8cc#\L)	4r	4r	4r	.	.	4e\	4e\	4a/	(8cc#\L)	(8ccc#\L)	(8ccc#\L)
8DD\J	8D\J	.	.	16b\L	.	.	.	.	.	.	.	.	16b\L	16bb\L	16bb\L
.	.	.	.	16a\JJ)	.	.	.	.	.	.	.	.	16a\JJ)	16aa\JJ)	16aa\JJ)
=34	=34	=34	=34	=34	=34	=34	=34	=34	=34	=34	=34	=34	=34	=34	=34
8D\L	8d\L	4f#\	2f#/	4dd'\	4D\	2dd\	2dd\	2.D_/	2.d_/	2d\	2d\	2.a/	4dd'\	4ddd'\	4ddd'\
8DD\	8D\	.	.	.	.	.	.	.	.	.	.	.	.	.	.
8D\	8d\	4a\	.	4dd'\	4r	.	.	.	.	.	.	.	4dd'\	4ddd'\	4ddd'\
8DD\	8D\	.	.	.	.	.	.	.	.	.	.	.	.	.	.
8D\	8d\	4e\	4g/	(8cc#\L)	4r	4r	4r	.	.	4e\	4e\	.	(8cc#\L)	(8ccc#\L)	(8ccc#\L)
8DD\J	8D\J	.	.	16b\L	.	.	.	.	.	.	.	.	16b\L	16bb\L	16bb\L
.	.	.	.	16a\JJ)	.	.	.	.	.	.	.	.	16a\JJ)	16aa\JJ)	16aa\JJ)
=35	=35	=35	=35	=35	=35	=35	=35	=35	=35	=35	=35	=35	=35	=35	=35
[2.D\	[2.d\	2.f#\	2.f#/	(2dd\	4D\	4dd\	4dd\	4D/]	4d/]	4d\	4d\	4a/	4dd\	(2ddd\	(2ddd\
.	.	.	.	.	4r	4r	4r	4r	4r	4r	4r	4r	4r	.	.
.	.	.	.	4cc\)	4r	4r	4r	4r	4r	4r	4r	4r	4r	4ccc\)	4ccc\)
=36	=36	=36	=36	=36	=36	=36	=36	=36	=36	=36	=36	=36	=36	=36	=36
2.D\]	2.d\]	(2.f\	(2.f/	4b'\	2.r	2.r	2.r	2.r	2.r	2.r	2.r	2.r	2.r	2.r	4bb'\
.	.	.	.	4b'\	.	.	.	.	.	.	.	.	.	.	4bb'\
.	.	.	.	(8g#/L)	.	.	.	.	.	.	.	.	.	.	(8gg#\L)
.	.	.	.	16f#/L	.	.	.	.	.	.	.	.	.	.	16ff#\L
.	.	.	.	16g#/JJ)	.	.	.	.	.	.	.	.	.	.	16gg#\JJ)
=37	=37	=37	=37	=37	=37	=37	=37	=37	=37	=37	=37	=37	=37	=37	=37
(4C#\	(4c#\	4e\	4e/	4a'/	2.r	2.r	2.r	2.r	2.r	2.r	2.r	2.r	2.r	2.r	4aa'\
2C\)	2c\)	2e-\)	2e-/)	4a'/	.	.	.	.	.	.	.	.	.	.	4aa'\
.	.	.	.	(8f#/L)	.	.	.	.	.	.	.	.	.	.	(8ff#\L)
.	.	.	.	16e/L	.	.	.	.	.	.	.	.	.	.	16ee\L
.	.	.	.	16f#/JJ)	.	.	.	.	.	.	.	.	.	.	16ff#\JJ)
=38	=38	=38	=38	=38	=38	=38	=38	=38	=38	=38	=38	=38	=38	=38	=38
(4BB\	(4B\	(2d\	(2d/	[4g/	2.r	2.r	2.r	2.r	2.r	2.r	2.r	2.r	2.r	2.r	[4gg\
4BB-\	4B-\	.	.	12g/L]	.	.	.	.	.	.	.	.	.	.	(12gg\L]
.	.	.	.	12a/	.	.	.	.	.	.	.	.	.	.	12aa\
.	.	.	.	12g/J	.	.	.	.	.	.	.	.	.	.	12gg\J)
4AA\)	4A\)	4c\)	4c/)	12f/L	.	.	.	.	.	.	.	.	.	.	(12ff\L
.	.	.	.	12g/	.	.	.	.	.	.	.	.	.	.	12gg\
.	.	.	.	12f/J	.	.	.	.	.	.	.	.	.	.	12ff\J)
=39	=39	=39	=39	=39	=39	=39	=39	=39	=39	=39	=39	=39	=39	=39	=39
(4GG\	(4G\	(4B-/	(4B-/	12e-/L	2.r	2.r	2.r	2.r	2.r	2.r	2.r	2.r	2.r	2.r	(12ee-\L
.	.	.	.	12f/	.	.	.	.	.	.	.	.	.	.	12ff\
.	.	.	.	12e-/J	.	.	.	.	.	.	.	.	.	.	12ee-\J)
4FF\	4F\	4A/	4A/)	12d/L	.	.	.	.	.	.	.	.	.	.	(12dd\L
.	.	.	.	12e-/	.	.	.	.	.	.	.	.	.	.	12ee-\
.	.	.	.	12d/J	.	.	.	.	.	.	.	.	.	.	12dd\J)
4EE-\)	4E-\)	4G/)	(4G/	(4c#/	.	.	.	.	.	.	.	.	.	.	(4cc#\
=40	=40	=40	=40	=40	=40	=40	=40	=40	=40	=40	=40	=40	=40	=40	=40
4DD\	4D\	2F#/	4d/)	4d/)	2.r	2.r	2.r	2.r	2.r	2.r	2.r	2.r	2.r	2.r	4dd\)
4DD\	4D\	.	4r	4r	.	.	.	.	.	.	.	.	.	.	4r
(8EE-\L)	(8EE-/L)	(4G/	(4c#/	(4g/	.	.	.	.	.	.	.	.	.	.	(4gg\
16DD\L	16DD/L	.	.	.	.	.	.	.	.	.	.	.	.	.	.
16EE-\JJ)	16EE-/JJ)	.	.	.	.	.	.	.	.	.	.	.	.	.	.
=41	=41	=41	=41	=41	=41	=41	=41	=41	=41	=41	=41	=41	=41	=41	=41
4DD'\	4DD'/	4d\)	4d/)	4f#/)	2.r	2.r	2.r	2.r	2.r	2.r	2.r	2.r	2.r	2.r	4ff#\)
4DD'\	4DD'/	4r	4r	4r	.	.	.	.	.	.	.	.	.	.	4r
(8EE-\L)	(8EE-/L)	4r	(4g/	(4cc#\	.	.	.	.	.	.	.	.	.	.	(4ccc#\
16DD\L	16DD/L	.	.	.	.	.	.	.	.	.	.	.	.	.	.
16EE-\JJ)	16EE-/JJ)	.	.	.	.	.	.	.	.	.	.	.	.	.	.
=42	=42	=42	=42	=42	=42	=42	=42	=42	=42	=42	=42	=42	=42	=42	=42
4DD'\	4DD'/	4r	4f#/)	4dd\)	2.r	2.r	2.r	2.r	2.r	2.r	2.r	4r	4r	2.r	4ddd\)
4DD'\	4DD'/	4r	4r	4r	.	.	.	.	.	.	.	4r	4r	.	4r
4r	4r	(8g\L)	4r	(8gg\L)	.	.	.	.	.	.	.	(8gg\L)	(8gg\L)	.	4r
.	.	16f#\L	.	16ff#\L	.	.	.	.	.	.	.	16ff#\L	16ff#\L	.	.
.	.	16g\JJ)	.	16gg\JJ)	.	.	.	.	.	.	.	16gg\JJ)	16gg\JJ)	.	.
!! "Solo" appears here just above "Vc." in Dover.  Significance ???  eft it out.
=43	=43	=43	=43	=43	=43	=43	=43	=43	=43	=43	=43	=43	=43	=43	=43
4GG'\	8G'\L	4d'\	8B'/L	4dd'\	4GG'/	4g'/	4dd'\	4g'\	4b'\	[2.B\	[2.d\	4dd'\	4dd'\	4r	4r
.	8B'\	.	8d'/	.	.	.	.	.	.	.	.	.	.	.	.
4GG'\	8G'\	4d'\	8B'/	4dd'\	4GG'/	4g'/	4dd'\	4g'\	4b'\	.	.	4dd'\	4dd'\	4r	4r
.	8B'\	.	8d'/	.	.	.	.	.	.	.	.	.	.	.	.
4r	8G'\	(8d\L)	8B'/	(8dd\L)	4r	4r	4r	4r	4r	.	.	(8dd\L)	(8dd\L)	(8ddd\L)	(8ddd\L)
.	8B'\J	16c#\L	8d'/J	16cc#\L	.	.	.	.	.	.	.	16cc#\L	16cc#\L	16ccc#\L	16ccc#\L
.	.	16d\JJ)	.	16dd\JJ)	.	.	.	.	.	.	.	16dd\JJ)	16dd\JJ)	16ddd\JJ)	16ddd\JJ)
=44	=44	=44	=44	=44	=44	=44	=44	=44	=44	=44	=44	=44	=44	=44	=44
4GG'\	(8G\L	4B'/	(8g/L	4b'\	4GG/	4g'/	4dd'\	4B'/	4g'\	2.B\]	2.d\]	4b'\	4b'\	4bb'\	4bb'\
.	8B\	.	8d/	.	.	.	.	.	.	.	.	.	.	.	.
4GG'\	8G\	4B'/	8B/	4b'\	4GG/	4g'/	4dd'\	4B'/	4g'\	.	.	4b'\	4b'\	4bb'\	4bb'\
.	8B\	.	8d/	.	.	.	.	.	.	.	.	.	.	.	.
4r	8G\	(8B/L)	8B/	(8b/L)	4r	4r	4r	4r	4r	.	.	(8b/L)	(8b/L)	(8bb\L)	(8bb\L)
.	8B\J)	16A/L	8d/J)	16a/L	.	.	.	.	.	.	.	16a/L	16a/L	16aa\L	16aa\L
.	.	16G/JJ)	.	16g/JJ)	.	.	.	.	.	.	.	16g/JJ)	16g/JJ)	16gg\JJ)	16gg\JJ)
=45	=45	=45	=45	=45	=45	=45	=45	=45	=45	=45	=45	=45	=45	=45	=45
2.DD\	(2A\	(2A/	(2c/	8f#'/L	4D/	[2.dd\	[2.dd\	2d/	2a\	2A\	2c\	4f#/	4f#/	8ff#'\L	8ff#'\L
.	.	.	.	8g'/	.	.	.	.	.	.	.	.	.	8gg'\	8gg'\
.	.	.	.	8g#'/	8D/L	.	.	.	.	.	.	4r	4r	8gg#'\	8gg#'\
.	.	.	.	8a'/	8D/	.	.	.	.	.	.	.	.	8aa'\	8aa'\
.	4G\)	4G/)	4B/)	8b-'/	8D/	.	.	4g\	4b\	4G\	4B\	4r	4r	8bb-'\	8bb-'\
.	.	.	.	8b'/J	8D/J	.	.	.	.	.	.	.	.	8bb'\J	8bb'\J
=46	=46	=46	=46	=46	=46	=46	=46	=46	=46	=46	=46	=46	=46	=46	=46
4DDD/	4F#\	4F#/	4A/	4cc\	4D/	4dd\]	4dd\]	2.d/	2.a\	4F#\	4A\	8dd'\L	8ff#'\L	4ccc\	4ccc\
.	.	.	.	.	.	.	.	.	.	.	.	8ee'\	8gg'\	.	.
4r	4r	4r	4r	4r	4r	4r	4r	.	.	4r	4r	8ff#'\	8aa'\	4r	4r
.	.	.	.	.	.	.	.	.	.	.	.	8gg'\	8bb'\	.	.
4r	4r	4r	4r	(8cc\L)	4r	4r	4r	.	.	4r	4r	8aa'\	8ccc'\	4r	4r
.	.	.	.	16b\L	.	.	.	.	.	.	.	8gg'\J	8bb'\J	.	.
.	.	.	.	16cc\JJ)	.	.	.	.	.	.	.	.	.	.	.
=47	=47	=47	=47	=47	=47	=47	=47	=47	=47	=47	=47	=47	=47	=47	=47
4DD\	8D\L	8F#/L	4cc/ 4d/	4aa'\	4D\	[2.dd\	[2.dd\	4d/	4a\	8F#\L	8F#\L	4ff#\	4aa\	4r	4r
.	8E\	8G/	.	.	.	.	.	.	.	8G\	8G\	.	.	.	.
4DD\	8F#\	8A/	4cc/ 4d/	4aa'\	8D\L	.	.	4d/	4a\	8A\	8A\	4r	4r	4r	4r
.	8G\	8B/	.	.	8D\	.	.	.	.	8B\	8B\	.	.	.	.
4r	8A\	8c/	4r	(8ff#\L)	8D\	.	.	4d/	4a\	8c\	8c\	4r	4r	(8ff#\L)	(8ff#\L)
.	8B\J	8d/J	.	16ee\L	8D\J	.	.	.	.	8d\J	8d\J	.	.	16ee\L	16ee\L
.	.	.	.	16dd\JJ)	.	.	.	.	.	.	.	.	.	16dd\JJ)	16dd\JJ)
=48	=48	=48	=48	=48	=48	=48	=48	=48	=48	=48	=48	=48	=48	=48	=48
4DD\	8c\L	8e\L	4a/ 4f#/	4cc'\	4D\	2.dd\]	2.dd\]	2d/	2a\	8e\L	8e\L	2.r	2.r	4ccc'\	4ccc'\
.	8d\	8f#\	.	.	.	.	.	.	.	8f#\	8f#\	.	.	.	.
4DD\	8e\	8g\	4a/ 4f#/	4cc'\	8D\L	.	.	.	.	8g\	8g\	.	.	4ccc'\	4ccc'\
.	8f#\J	8a\J	.	.	8D\J	.	.	.	.	8f#\	8f#\	.	.	.	.
4GGG/	4g\	4b\	4b/ 4g/	(8b/L)	4GG/	.	.	4g\	4b\	8g\	8g\	.	.	(8bb\L)	(8bb\L)
.	.	.	.	16a/L	.	.	.	.	.	8B\J	8B\J	.	.	16aa\L	16aa\L
.	.	.	.	16g/JJ)	.	.	.	.	.	.	.	.	.	16gg\JJ)	16gg\JJ)
=49	=49	=49	=49	=49	=49	=49	=49	=49	=49	=49	=49	=49	=49	=49	=49
4CC/	4c\	4cc\	4e/	8a'\L	4GG/	2cc\	2ee\	4a\	4cc\	4c\	4c\	2.r	2.r	8aa'\L	8aa'\L
.	.	.	.	8b'\	.	.	.	.	.	.	.	.	.	8bb'\	8bb'\
4r	4r	4r	4r	8cc'\	4r	.	.	4r	4r	4r	4r	.	.	8ccc'\	8ccc'\
.	.	.	.	8dd'\	.	.	.	.	.	.	.	.	.	8ddd'\	8ddd'\
4DD\	4D\	4a\	4cc\	8ee'\	4D\	4dd\	4dd\	4d/	4a\	4D\	4D\	.	.	8eee'\	8eee'\
.	.	.	.	8ff#'\J	.	.	.	.	.	.	.	.	.	8fff#'\J	8fff#'\J
=50	=50	=50	=50	=50	=50	=50	=50	=50	=50	=50	=50	=50	=50	=50	=50
8GG'\L	8G'\L	8g'\L	8b'\L	4gg'\	4GG/	2.g/	2.dd\	4G/	4g\	4G\	4G\	(4gg\	(4gg\	2.ggg\	2.ggg\
8AA'\	8A'\	8a'\	8cc'\	.	.	.	.	.	.	.	.	.	.	.	.
8BB'\	8B'\	8b'\	8dd'\	4gg'\	4GG/	.	.	8G/L	8g\L	4g\	4g\	4ff\	4ff\	.	.
8C'\	8c'\	8cc'\	8ee'\	.	.	.	.	8G/J	8g\J	.	.	.	.	.	.
8D'\	8d'\	8dd'\	8ff'\	4gg'\	4GG/	.	.	4G/	4g\	4f\	4f\	4dd\)	4dd\)	.	.
8BB'\J	8B'\J	8b'\J	8dd'\J	.	.	.	.	.	.	.	.	.	.	.	.
=51	=51	=51	=51	=51	=51	=51	=51	=51	=51	=51	=51	=51	=51	=51	=51
8C'\L	8c'\L	8cc'\L	8ee'/L	4ccc'\	4GG/	4cc\	4ee\	4g\	4g\	4e\	4e\	8ee\L	4ee\	2.ccc\	2.ccc\
8BB'\	8B'\	8b'\	8dd'/	.	.	.	.	.	.	.	.	8dd\	.	.	.
8AA'\	8A'\	8a'\	8cc'/	4ccc'\	4r	4r	4r	8g\L	8g\L	4r	4r	8cc\	4ccc\	.	.
8GG'\	8G'\	8g'\	8b'/	.	.	.	.	8g\J	8g\J	.	.	8b\	.	.	.
8FF#'\	8F#'\	8f#'\	8a'/	4ccc'\	4D\	4r	4r	4d/	4a\	4r	4r	8a\	4ccc\	.	.
8DD'\J	8D'\J	8d'\J	8f#'/J	.	.	.	.	.	.	.	.	8ff#\J	.	.	.
=52	=52	=52	=52	=52	=52	=52	=52	=52	=52	=52	=52	=52	=52	=52	=52
4GG\	4G\	8g'\L	8b'/L	8bb'\L	4GG/	2.r	2.r	4g\	4b\	8B\L	8B\L	8gg\L	8bb\L	4bb\	4bb\
.	.	8f#'\	8a'/	8aa'\	.	.	.	.	.	8c\	8c\	8ff#\	8aa\	.	.
4r	4r	8e'\	8g'/	8gg'\	4r	.	.	4r	4r	8d\	8d\	8ee\	8gg\	4r	4r
.	.	8d'\	8f#/	8ff#'\	.	.	.	.	.	8e\	8e\	8dd\	8ff#\	.	.
4BBB/	4BB/	8c'\	8e'/	8ee'\	4r	.	.	4r	4r	8f#\	8f#\	8cc\	8ee\	4r	4r
.	.	8B'\J	8d'/J	8dd'\J	.	.	.	.	.	8g\J	8g\J	8b\J	8dd\J	.	.
=53	=53	=53	=53	=53	=53	=53	=53	=53	=53	=53	=53	=53	=53	=53	=53
4CC/	4C/	4c\	8e/L	8cc/L	4r	4r	4r	4r	4r	4c\	4c\	4a/	4cc\	4r	4r
.	.	.	8d/	8b/	.	.	.	.	.	.	.	.	.	.	.
4r	4r	4r	8c/	8a/	4r	4r	4r	4r	4r	4r	4r	4r	4r	4r	4r
.	.	.	8B/	8g/J	.	.	.	.	.	.	.	.	.	.	.
4DD\	4D\	4d\	8A/	(8f#/L)	4D\	4dd\	4dd\	4d/	4a\	4D\	4D\	(4a/	(4cc\	(8ff#\L)	(8ff#\L)
.	.	.	8c/J	16e/L	.	.	.	.	.	.	.	.	.	16ee\L	16ee\L
.	.	.	.	16f#/JJ)	.	.	.	.	.	.	.	.	.	16ff#\JJ)	16ff#\JJ)
=54	=54	=54	=54	=54	=54	=54	=54	=54	=54	=54	=54	=54	=54	=54	=54
4GG\	4G\	8G/L	8B/L	4g'/	4GG/	4g/	4gg\	4g\	4b\	4G\	4G\	4g/)	4b\)	4gg'\	4gg'\
.	.	8B/	8d/	.	.	.	.	.	.	.	.	.	.	.	.
4r	4r	8G/	8B/	4dd'\	4r	4r	4r	4r	4r	4B\	4d\	4r	4r	4ddd'\	4ddd'\
.	.	8B/	8d/	.	.	.	.	.	.	.	.	.	.	.	.
4DD\	4D\	8c/	8c/	(8f#/L)	4D\	4dd\	4dd\	4d/	4a\	4A\	4c\	(4f#/	(4a/	(8ff#\L)	(8ff#\L)
.	.	8A/J	8d/J	16e/L	.	.	.	.	.	.	.	.	.	16ee\L	16ee\L
.	.	.	.	16f#/JJ)	.	.	.	.	.	.	.	.	.	16ff#\JJ)	16ff#\JJ)
=55	=55	=55	=55	=55	=55	=55	=55	=55	=55	=55	=55	=55	=55	=55	=55
4GGG/	4GG/	8G/L	8B/L	4g'/	4GG/	4g/	4gg\	4g\	4b\	4G\	4B\	4g/)	4b\)	4gg'\	4gg'\
.	.	8B/	8d/	.	.	.	.	.	.	.	.	.	.	.	.
4r	4r	8G/	8B/	4dd'\	4r	4r	4r	4r	4r	4B\	4d\	4r	4r	4ddd'\	4ddd'\
.	.	8B/	8d/	.	.	.	.	.	.	.	.	.	.	.	.
4DD\	4D\	8c/	8c/	4ff#/ 4a/ 4d/	4D\	4dd\	4dd\	4d/	4a\	4A\	4c\	(4cc\	(4ff#\	4ff#\	4ff#\
.	.	8A/J	8d/J	.	.	.	.	.	.	.	.	.	.	.	.
=56	=56	=56	=56	=56	=56	=56	=56	=56	=56	=56	=56	=56	=56	=56	=56
*>C	*>C	*>C	*>C	*>C	*>C	*>C	*>C	*>C	*>C	*>C	*>C	*>C	*>C	*>C	*>C
4GGG/	4GG/	4G/	4B/	4gg\ 4b\ 4d\	4GG/	4g/	4gg\	4B/	4g\	4G\	4B\	4b\)	4gg\)	4gg\	4gg\
4r	4r	4r	4r	4r	4r	4r	4r	4r	4r	4r	4r	4r	4r	4r	4r
=:|!@	=:|!@	=:|!@	=:|!@	=:|!@	=:|!@	=:|!@	=:|!@	=:|!@	=:|!@	=:|!@	=:|!@	=:|!@	=:|!@	=:|!@	=:|!@
*>D	*>D	*>D	*>D	*>D	*>D	*>D	*>D	*>D	*>D	*>D	*>D	*>D	*>D	*>D	*>D
4GGG/	4GG/	4G/	4B/	4gg\ 4b\ 4d\	4GG/	4g/	4gg\	4B/	4g\	4G\	4B\	4b\	4gg\	4gg\	4gg\
8.r	8.r	8.r	8.r	8.r	8.r	8.r	8.r	8.r	8.r	8.r	8.r	8.r	8.r	8.r	8.r
=!|:@	=!|:@	=!|:@	=!|:@	=!|:@	=!|:@	=!|:@	=!|:@	=!|:@	=!|:@	=!|:@	=!|:@	=!|:@	=!|:@	=!|:@	=!|:@
*>E	*>E	*>E	*>E	*>E	*>E	*>E	*>E	*>E	*>E	*>E	*>E	*>E	*>E	*>E	*>E
!! Trio
16r	16r	16r	(16g/LK	(16b/LK	16r	16r	16r	16r	16r	16r	16r	16r	(16gg\LK	16r	(16bb\LK
4r	4r	4r	8f#/)	8a/)	4r	4r	4r	4r	4r	4r	4r	4r	8ff#\)	4r	8aa\)
.	.	.	16r	16r	.	.	.	.	.	.	.	.	16r	.	16r
.	.	.	(16g/Jk	(16b/Jk	.	.	.	.	.	.	.	.	(16gg\Jk	.	(16bb\Jk
=58	=58	=58	=58	=58	=58	=58	=58	=58	=58	=58	=58	=58	=58	=58	=58
2.r	2.r	2.r	8a/L)	8cc/L)	2.r	2.r	2.r	2.r	2.r	2.r	2.r	2.r	8aa\L)	2.r	8ccc\L)
.	.	.	16r	16r	.	.	.	.	.	.	.	.	16r	.	16r
.	.	.	(16g/kk	(16b/kk	.	.	.	.	.	.	.	.	(16gg\kk	.	(16bb\
.	.	.	8f#/)	8a/)	.	.	.	.	.	.	.	.	8ff#\)	.	8aa\)
.	.	.	16r	16r	.	.	.	.	.	.	.	.	16r	.	16r
.	.	.	(16e/kk	(16g/kk	.	.	.	.	.	.	.	.	(16ee\kk	.	(16gg\kk
.	.	.	8d/)	8f#/)	.	.	.	.	.	.	.	.	8dd\)	.	8ff#\)
.	.	.	16r	16r	.	.	.	.	.	.	.	.	16r	.	16r
.	.	.	(16c/Jk	(16e/Jk	.	.	.	.	.	.	.	.	(16cc\Jk	.	(16ee\Jk
=59	=59	=59	=59	=59	=59	=59	=59	=59	=59	=59	=59	=59	=59	=59	=59
(2.GGG/	(2.GG/	4r	(2B/)	(4d/)	2.r	2.r	2.r	2.r	2.r	2.r	2.r	2.r	(2b\)	2.r	(4dd\)
.	.	(4d\	.	4g/	.	.	.	.	.	.	.	.	.	.	4gg\
.	.	4B/)	4d/)	4b/)	.	.	.	.	.	.	.	.	4dd\)	.	4bb\)
=60	=60	=60	=60	=60	=60	=60	=60	=60	=60	=60	=60	=60	=60	=60	=60
2CC/	2C/	(4G/	(2e/	(4e/	2.r	2.r	2.r	2.r	2.r	2.r	2.r	2.r	(2ee\	2.r	(4ee\
.	.	4e\)	.	4a/	.	.	.	.	.	.	.	.	.	.	4aa\
4AAA/)	4AA/)	4e\	4a/)	4cc\)	.	.	.	.	.	.	.	.	4aa\)	.	4ccc\)
=61	=61	=61	=61	=61	=61	=61	=61	=61	=61	=61	=61	=61	=61	=61	=61
4DD\	4D\	4d\	(4g/	(4b\	2.r	2.r	2.r	2.r	2.r	2.r	2.r	2.r	(4gg\	2.r	(4bb\
4r	4r	4r	8f#/)	8a/)	.	.	.	.	.	.	.	.	8ff#\)	.	8aa\)
.	.	.	16r	16r	.	.	.	.	.	.	.	.	16r	.	16r
.	.	.	(16g/LK	(16b/LK	.	.	.	.	.	.	.	.	(16gg\LK	.	(16bb\LK
4r	4r	4r	8f#/)	8a/)	.	.	.	.	.	.	.	.	8ff#\)	.	8aa\)
.	.	.	16r	16r	.	.	.	.	.	.	.	.	16r	.	16r
.	.	.	(16g/Jk	(16b/Jk	.	.	.	.	.	.	.	.	(16gg\Jk	.	(16bb\Jk
=62	=62	=62	=62	=62	=62	=62	=62	=62	=62	=62	=62	=62	=62	=62	=62
2.r	2.r	2.r	8a/L)	8cc/L)	2.r	2.r	2.r	2.r	2.r	2.r	2.r	2.r	8aa\L)	2.r	8ccc\L)
.	.	.	16r	16r	.	.	.	.	.	.	.	.	16r	.	16r
.	.	.	(16g/kk	(16b/kk	.	.	.	.	.	.	.	.	(16gg\kk	.	(16bb\kk
.	.	.	8f#/)	8a/)	.	.	.	.	.	.	.	.	8ff#\)	.	8aa\)
.	.	.	16r	16r	.	.	.	.	.	.	.	.	16r	.	16r
.	.	.	(16e/kk	(16g/kk	.	.	.	.	.	.	.	.	(16ee\kk	.	(16gg\kk
.	.	.	8d/)	16f#/)	.	.	.	.	.	.	.	.	8dd\)	.	8ff#\)
.	.	.	.	8r	.	.	.	.	.	.	.	.	.	.	.
.	.	.	16r	.	.	.	.	.	.	.	.	.	16r	.	16r
.	.	.	16c/Jk	16e/Jk	.	.	.	.	.	.	.	.	16cc\Jk	.	16ee\Jk
=63	=63	=63	=63	=63	=63	=63	=63	=63	=63	=63	=63	=63	=63	=63	=63
(2GGG/	(2GG/	4r	(2B/	(4d/	2.r	2.r	2.r	2.r	2.r	2.r	2.r	2.r	(2b\	2.r	(4dd\
.	.	4r	.	4dd\)	.	.	.	.	.	.	.	.	.	.	4ddd\)
4CC/	4C/	4E/	8e/L	(8cc\L)	.	.	.	.	.	.	.	.	8ee\L	.	(8ccc\L)
.	.	.	8c/J)	16b\L	.	.	.	.	.	.	.	.	8cc\J)	.	16bb\L
.	.	.	.	16a\JJ)	.	.	.	.	.	.	.	.	.	.	16aa\JJ)
=64	=64	=64	=64	=64	=64	=64	=64	=64	=64	=64	=64	=64	=64	=64	=64
2.DD\)	2.D\)	(2G/	(2B/	(2g/	2.r	2.r	2.r	2.r	2.r	2.r	2.r	2.r	(2b\	2.r	(2gg\
.	.	4F#/)	4c/)	8.a/L	.	.	.	.	.	.	.	.	4cc\)	.	8.aa\L
.	.	.	.	16b/Jk)	.	.	.	.	.	.	.	.	.	.	16bb\Jk)
=65	=65	=65	=65	=65	=65	=65	=65	=65	=65	=65	=65	=65	=65	=65	=65
4GGG/	4GG/	4G'/	4B'/	4g'/	4r	4r	4r	4r	4r	4r	4r	4r	4b'\	4r	4gg'\
8.GG\	8.G\	8.r	8.r	8.r	8.r	8.r	8.r	8.r	8.r	8.r	8.r	8.r	8.r	8.r	8.r
=:||:@	=:||:@	=:||:@	=:||:@	=:||:@	=:||:@	=:||:@	=:||:@	=:||:@	=:||:@	=:||:@	=:||:@	=:||:@	=:||:@	=:||:@	=:||:@
*>F	*>F	*>F	*>F	*>F	*>F	*>F	*>F	*>F	*>F	*>F	*>F	*>F	*>F	*>F	*>F
16r	16r	16r	(16g/LK	(16b/LK	16r	16r	16r	16r	16r	16r	16r	16r	16r	16r	16r
4r	4d\	4r	8f#/)	8a/)	4r	4r	4r	4r	4r	4r	4r	4r	4r	4r	4r
.	.	.	16r	16r	.	.	.	.	.	.	.	.	.	.	.
.	.	.	16a/Jk	16cc/Jk	.	.	.	.	.	.	.	.	.	.	.
=66	=66	=66	=66	=66	=66	=66	=66	=66	=66	=66	=66	=66	=66	=66	=66
2.r	4G\	2.r	4g/	(4b/	2.r	2.r	2.r	2.r	2.r	2.r	[2.d\	2.r	2.r	2.r	2.r
.	8.r	.	4r	8g/)	.	.	.	.	.	.	.	.	.	.	.
.	.	.	.	16r	.	.	.	.	.	.	.	.	.	.	.
.	(16G\LK	.	.	(16B/LK	.	.	.	.	.	.	.	.	.	.	.
.	8F#\)	.	[4d/	8A/)	.	.	.	.	.	.	.	.	.	.	.
.	16r	.	.	16r	.	.	.	.	.	.	.	.	.	.	.
.	(16A\Jk	.	.	16c/Jk	.	.	.	.	.	.	.	.	.	.	.
=67	=67	=67	=67	=67	=67	=67	=67	=67	=67	=67	=67	=67	=67	=67	=67
2.r	4G\)	2.r	4d/]	(4B/	2.r	2.r	2.r	2.r	2.r	2.r	2.d_\	2.r	2.r	2.r	2.r
.	4r	.	8.r	8G/)	.	.	.	.	.	.	.	.	.	.	.
.	.	.	.	16r	.	.	.	.	.	.	.	.	.	.	.
.	.	.	(16g/LK	(16b\LK	.	.	.	.	.	.	.	.	.	.	.
.	4d\	.	8f#/)	8a\)	.	.	.	.	.	.	.	.	.	.	.
.	.	.	16r	16r	.	.	.	.	.	.	.	.	.	.	.
.	.	.	16a/Jk	16cc\Jk	.	.	.	.	.	.	.	.	.	.	.
=68	=68	=68	=68	=68	=68	=68	=68	=68	=68	=68	=68	=68	=68	=68	=68
2.r	(4G\	2.r	(4g/	(4b\	2.r	2.r	2.r	2.r	2.r	2.r	2d\]	2.r	2.r	2.r	2.r
.	4E\	.	4b/	4gg\	.	.	.	.	.	.	.	.	.	.	.
.	4A\)	.	4e/)	4cc#\)	.	.	.	.	.	.	4g\	.	.	.	.
=69	=69	=69	=69	=69	=69	=69	=69	=69	=69	=69	=69	=69	=69	=69	=69
4r	4D\	4r	4f#/	8.dd/L 8.d/	8.D\L	8.dd\L	8.dd\L	8.d/L	8.d/L	4r	4f#\	4r	4r	2.r	8.ddd\L
.	.	.	.	16dd/kk 16d/	16D\kk	16dd\kk	16dd\kk	16d/kk	16d/kk	.	.	.	.	.	16ddd\kk
8.r	8.r	8.r	8.r	8.dd/ 8.d/	8.D\	8.dd\	8.dd\	8.d/	8.d/	8.r	8.r	8.r	8.r	.	8.ddd\
16DD\LK	16D\LK	16d\LK	16d/LK	16dd/kk 16d/	16D\kk	16dd\kk	16dd\kk	16d/kk	16d/kk	16D\LK	16D\LK	16dd\LK	16dd\LK	.	16ddd\kk
8.EE\	8.E\	8.e\	8.e/	8.dd/ 8.d/	8.D\	8.dd\	8.dd\	8.d/	8.d/	8.E\	8.E\	8.ee\	8.ee\	.	8.ddd\
16FF#\Jk	16F#\Jk	16f#\Jk	16f#/Jk	16dd/Jk 16d/	16D\Jk	16dd\Jk	16dd\Jk	16d/Jk	16d/Jk	16F#\Jk	16F#\Jk	16ff#\Jk	16ff#\Jk	.	16ddd\Jk
=70	=70	=70	=70	=70	=70	=70	=70	=70	=70	=70	=70	=70	=70	=70	=70
8.GG\L	8.G\L	8.g\L	8.g/L	8.dd/L 8.d/	8.D\L	8.dd\L	8.dd\L	8.d/L	8.d/L	8.G\L	8.G\L	8.gg\L	8.gg\L	2.r	8.ddd\L
16FF#\kk	16F#\kk	16f#\kk	16f#/kk	16dd/kk 16d/	16D\kk	16dd\kk	16dd\kk	16d/kk	16d/kk	16F#\kk	16F#\kk	16ff#\kk	16ff#\kk	.	16ddd\kk
8.GG\	8.G\	8.g\	8.g/	8.dd/ 8.d/	8.D\	8.dd\	8.dd\	8.d/	8.d/	8.G\	8.G\	8.gg\	8.gg\	.	8.ddd\
16BB-\kk	16B-\kk	16b-\kk	16b-/kk	16dd/kk 16d/	16D\kk	16dd\kk	16dd\kk	16d/kk	16d/kk	16B-\kk	16B-\kk	16bb-\kk	16bb-\kk	.	16ddd\kk
8.AA\	8.A\	8.a\	8.a/	8.dd/ 8.d/	8.D\	8.dd\	8.dd\	8.d/	8.d/	8.A\	8.A\	8.aa\	8.aa\	.	8.ddd\
16GG\Jk	16G\Jk	16g\Jk	16g/Jk	16dd/Jk 16d/	16D\Jk	16dd\Jk	16dd\Jk	16d/Jk	16d/Jk	16G\Jk	16G\Jk	16gg\Jk	16gg\Jk	.	16ddd\Jk
=71	=71	=71	=71	=71	=71	=71	=71	=71	=71	=71	=71	=71	=71	=71	=71
8.FF#/L	8.F#/L	8.f#\L	8.f#/L	8.dd/L 8.d/	8.D\L	8.dd\L	8.dd\L	8.d/L	8.d/L	8.F#/L	8.F#/L	8.ff#\L	8.ff#\L	2.r	8.ddd\L
16EE-/kk	16E-/kk	16e-\kk	16e-/kk	16dd/kk 16d/	16D\kk	16dd\kk	16dd\kk	16d/kk	16d/kk	16E-/kk	16E-/kk	16ee-\kk	16ee-\kk	.	16ddd\kk
8.DD/	8.D/	8.d\	8.d/	8.dd/ 8.d/	8.D\	8.dd\	8.dd\	8.d/	8.d/	8.D/	8.D/	8.dd\	8.dd\	.	8.ddd\
16CC/kk	16C/kk	16c\kk	16c/kk	16dd/kk 16d/	16D\kk	16dd\kk	16dd\kk	16d/kk	16d/kk	16C/kk	16C/kk	16cc\kk	16cc\kk	.	16ddd\kk
8.BBB-/	8.BB-/	8.B-\	8.B-/	8.dd/ 8.d/	8.D\	8.dd\	8.dd\	8.d/	8.d/	8.BB-/	8.BB-/	8.b-\	8.b-\	.	8.ddd\
16AAA/Jk	16AA/Jk	16A\Jk	16A/Jk	16dd/Jk 16d/	16D\Jk	16dd\Jk	16dd\Jk	16d/Jk	16d/Jk	16AA/Jk	16AA/Jk	16a\Jk	16a\Jk	.	16ddd\Jk
=72	=72	=72	=72	=72	=72	=72	=72	=72	=72	=72	=72	=72	=72	=72	=72
8.GGG/L	8.GG/L	8.G/L	8.G/L	8.dd/L 8.d/	8.D\L	8.dd\L	8.dd\L	8.d/L	8.d/L	8.GG/L	8.GG/L	8.g/L	8.g/L	2.r	8.ddd\L
16FFF#/kk	16FF#/kk	16F#/kk	16A/kk	16dd/kk 16d/	16D\kk	16dd\kk	16dd\kk	16d/kk	16d/kk	16FF#/kk	16FF#/kk	16f#/kk	16f#/kk	.	16ddd\kk
8.GGG/	8.GG/	8.G/	8.B-/	8.dd/ 8.d/	8.D\	8.dd\	8.dd\	8.d/	8.d/	8.GG/	8.GG/	8.g/	8.g/	.	8.ddd\
16AAA/kk	16AA/kk	16A/kk	16A/kk	16dd/kk 16d/	16D\kk	16dd\kk	16dd\kk	16d/kk	16d/kk	16AA/kk	16AA/kk	16a/kk	16a/kk	.	16ddd\kk
8.BBB-/	8.BB-/	8.B-/	8.B-/	8.dd/ 8.d/	8.D\	8.dd\	8.dd\	8.d/	8.d/	8.BB-/	8.BB-/	8.b-/	8.b-/	.	8.ddd\
16GGG/Jk	16GG/Jk	16G/Jk	16G/Jk	16dd/Jk 16d/	16D\Jk	16dd\Jk	16dd\Jk	16d/Jk	16d/Jk	16GG/Jk	16GG/Jk	16g/Jk	16g/Jk	.	16ddd\Jk
=73	=73	=73	=73	=73	=73	=73	=73	=73	=73	=73	=73	=73	=73	=73	=73
4DD\	4D\	4d\	4d/	4dd/ 4d/	4D\	4dd\	4dd\	4d/	4d/	4D\	4D\	4dd\	4dd\	2.r	4ddd\
4r	4r	4r	8.r	8.r	4r	4r	4r	4r	4r	4r	4r	4r	8.r	.	8.r
.	.	.	(16g/LK	(16b/LK	.	.	.	.	.	.	.	.	(16gg\LK	.	(16bb\LK
4r	4r	4r	8f#/)	8a/)	4r	4r	4r	4r	4r	4r	4r	4r	8ff#\)	.	8aa\)
.	.	.	16r	16r	.	.	.	.	.	.	.	.	16r	.	16r
.	.	.	(16g/Jk	(16b/Jk	.	.	.	.	.	.	.	.	(16gg\Jk	.	(16bb\Jk
=74	=74	=74	=74	=74	=74	=74	=74	=74	=74	=74	=74	=74	=74	=74	=74
2.r	2.r	2.r	8a/L)	8cc/L)	2.r	2.r	2.r	2.r	2.r	2.r	2.r	2.r	8aa\L)	2.r	8ccc\L)
.	.	.	16r	16r	.	.	.	.	.	.	.	.	16r	.	16r
.	.	.	(16g/kk	(16b/kk	.	.	.	.	.	.	.	.	(16gg\kk	.	(16bb\kk
.	.	.	8f#/)	8a/)	.	.	.	.	.	.	.	.	8ff#\)	.	8aa\)
.	.	.	16r	16r	.	.	.	.	.	.	.	.	16r	.	16r
.	.	.	(16e/kk	(16g/kk	.	.	.	.	.	.	.	.	(16ee\kk	.	(16gg\kk
.	.	.	8d/)	8f#/)	.	.	.	.	.	.	.	.	8dd\)	.	8ff#\)
.	.	.	16r	16r	.	.	.	.	.	.	.	.	16r	.	16r
.	.	.	(16c/Jk	(16e/Jk	.	.	.	.	.	.	.	.	(16cc\Jk	.	(16ee\Jk
=75	=75	=75	=75	=75	=75	=75	=75	=75	=75	=75	=75	=75	=75	=75	=75
(2.GGG/	(2.GG/	4r	(2B/)	(4d/)	2.r	2.r	2.r	2.r	2.r	2.r	2.r	2.r	(2b\)	2.r	(4dd\)
.	.	4d\	.	4g/	.	.	.	.	.	.	.	.	.	.	4gg\
.	.	4B/	4d/)	4b\)	.	.	.	.	.	.	.	.	4dd\)	.	4bb\)
=76	=76	=76	=76	=76	=76	=76	=76	=76	=76	=76	=76	=76	=76	=76	=76
2CC/	2C/	(4G/	(2e/	(4e/	2.r	2.r	2.r	2.r	2.r	2.r	2.r	2.r	(2ee\	2.r	(4ee\
.	.	4e\)	.	4a/	.	.	.	.	.	.	.	.	.	.	4aa\
4AAA/)	4AA/)	4e\	4a/)	4cc\)	.	.	.	.	.	.	.	.	4aa\)	.	4ccc\)
=77	=77	=77	=77	=77	=77	=77	=77	=77	=77	=77	=77	=77	=77	=77	=77
4DD\	4D\	4d\	(4g/	(4b\	2.r	2.r	2.r	2.r	2.r	2.r	2.r	2.r	(4gg\	2.r	(4bb\
4r	4r	8.r	8f#/)	8a/)	.	.	.	.	.	.	.	.	8ff#\)	.	8aa\)
.	.	.	8r	16r	.	.	.	.	.	.	.	.	16r	.	16r
.	.	(16G/LK	.	(16B/LK	.	.	.	.	.	.	.	.	(16g/LK	.	(16b/LK
4r	4r	8F#/)	8.r	8A/)	.	.	.	.	.	.	.	.	8f#/)	.	8a/)
.	.	16r	.	16r	.	.	.	.	.	.	.	.	16r	.	16r
.	.	(16G/Jk	(16G/	(16B/Jk	.	.	.	.	.	.	.	.	(16g/Jk	.	(16b/Jk
=78	=78	=78	=78	=78	=78	=78	=78	=78	=78	=78	=78	=78	=78	=78	=78
2.r	2.r	4A/)	8A/L)	8c/L)	2.r	2.r	2.r	2.r	2.r	2.r	2.r	2.r	8a\L)	2.r	8cc\L)
.	.	.	16r	16r	.	.	.	.	.	.	.	.	16r	.	16r
.	.	.	(16B/kk	(16d/kk	.	.	.	.	.	.	.	.	(16b\kk	.	(16dd\kk
.	.	4r	8c/)	8e/)	.	.	.	.	.	.	.	.	8cc\)	.	8ee\)
.	.	.	16r	16r	.	.	.	.	.	.	.	.	16r	.	16r
.	.	.	(16d/kk	(16f#/kk	.	.	.	.	.	.	.	.	(16dd\kk	.	(16ff#\kk
.	.	4r	8e/)	8g/)	.	.	.	.	.	.	.	.	8ee\)	.	8gg\)
.	.	.	16r	16r	.	.	.	.	.	.	.	.	16r	.	16r
.	.	.	(16f#/Jk	(16a/Jk	.	.	.	.	.	.	.	.	(16ff#\Jk	.	(16aa\Jk
=79	=79	=79	=79	=79	=79	=79	=79	=79	=79	=79	=79	=79	=79	=79	=79
4r	4r	2.r	8g/L)	8b\L)	2.r	2.r	2.r	2.r	2.r	2.r	2.r	2.r	8gg\L)	2.r	8bb\L)
.	.	.	16r	16r	.	.	.	.	.	.	.	.	16r	.	16r
.	.	.	(16a/kk	(16cc\kk	.	.	.	.	.	.	.	.	(16aa\kk	.	(16ccc\kk
4r	4r	.	8b/)	8dd\)	.	.	.	.	.	.	.	.	8bb\)	.	8ddd\)
.	.	.	16r	16r	.	.	.	.	.	.	.	.	16r	.	16r
.	.	.	(16cc/kk	(16ee\kk	.	.	.	.	.	.	.	.	(16ccc\kk	.	(16eee\kk
4CC/	4C/	.	8e/)	8cc\)	.	.	.	.	.	.	.	.	8aa\)	.	8ccc\)
.	.	.	16r	16r	.	.	.	.	.	.	.	.	16r	.	16r
.	.	.	16c/Jk	16a\Jk	.	.	.	.	.	.	.	.	16cc\Jk	.	16aa\Jk
=80	=80	=80	=80	=80	=80	=80	=80	=80	=80	=80	=80	=80	=80	=80	=80
2.DD\	2.D\	(4B/	(2B/	(2g/	2.r	2.r	2.r	2.r	2.r	2.r	2.r	2.r	(4b\	2.r	(2gg\
.	.	4d\	.	.	.	.	.	.	.	.	.	.	4dd\	.	.
.	.	4f#\)	4c/)	4a/)	.	.	.	.	.	.	.	.	4ff#\)	.	4aa\)
=81	=81	=81	=81	=81	=81	=81	=81	=81	=81	=81	=81	=81	=81	=81	=81
*>G	*>G	*>G	*>G	*>G	*>G	*>G	*>G	*>G	*>G	*>G	*>G	*>G	*>G	*>G	*>G
4GGG/	4GG/	4g\	4B/	4g/	4r	4r	4r	4r	4r	4r	4r	4r	4gg\	4r	4gg\
8.GG\	8.G\	8.r	8.r	8.r	8.r	8.r	8.r	8.r	8.r	8.r	8.r	8.r	8.r	8.r	8.r
=:|!@	=:|!@	=:|!@	=:|!@	=:|!@	=:|!@	=:|!@	=:|!@	=:|!@	=:|!@	=:|!@	=:|!@	=:|!@	=:|!@	=:|!@	=:|!@
*>H	*>H	*>H	*>H	*>H	*>H	*>H	*>H	*>H	*>H	*>H	*>H	*>H	*>H	*>H	*>H
4GGG/	4GG/	4g\	4B/	4g/	4r	4r	4r	4r	4r	4r	4r	4r	4gg\	4r	4gg\
4GG\	4G\	4r	4r	4r	4r	4r	4r	4r	4r	4r	4r	4r	4r	4r	4r
==|!	==|!	==|!	==|!	==|!	==|!	==|!	==|!	==|!	==|!	==|!	==|!	==|!	==|!	==|!	==|!
*-	*-	*-	*-	*-	*-	*-	*-	*-	*-	*-	*-	*-	*-	*-	*-
!!!CDT: 1732/3/31/-1809/5/31/
!!!OCO: Johann Peter Salomon
!!!OCY: Oesterreich
!!!ODT: 1793///-1794///
!!!MPD: 1794/3/31/
!!!OPC: London
!!!PPR: Ernst Eulenburg, Ltd.
!!!PPP: London
!!!PDT: 1880///
!!!AGN: symphony
!!!AST: classical, orchestral
!!!AMT: simple triple
!!!YOR: H.C. Robbins Landon, editor
!!!AIN: cbass cello cor fagot flt oboe timpa tromp viola violn
!!!EEV: 1.0
!!!RDT: 1996 June 26
!!!YER: 1996 August 10
!!!YEN: United States of America
!!!EFL: 3/4
!!!ENC: Frances Bennion
!!!EED: W.B. Hewlett
!!!VTS: 3967431185
